icons/brand/icon_card-mastercard_xl_white.svg

<?xml version="1.0" encoding="UTF-8"?>
<svg width="36px" height="36px" viewBox="0 0 36 36" version="1.1" xmlns="http://www.w3.org/2000/svg" xmlns:xlink="http://www.w3.org/1999/xlink">
    <!-- Generator: Sketch 47.1 (45422) - http://www.bohemiancoding.com/sketch -->
    <title>icon_card-mastercard_xl_white</title>
    <desc>Created with Sketch.</desc>
    <defs></defs>
    <g id="October-2017" stroke="none" stroke-width="1" fill="none" fill-rule="evenodd">
        <g id="icon_card-mastercard_xl_white">
            <g>
                <rect id="_ph_" opacity="0.900000036" x="0" y="0" width="36" height="36"></rect>
                <path d="M18.472002,22.5154871 C19.5236454,23.3647104 20.8728022,23.875 22.3440039,23.875 C25.7018952,23.875 28.4240039,21.2166907 28.4240039,17.9375 C28.4240039,14.6583093 25.7018952,12 22.3440039,12 C20.8728022,12 19.5236454,12.5102896 18.472002,13.3595129 C19.8206441,14.4485686 20.68,16.0950298 20.68,17.9375 C20.68,19.7799702 19.8206441,21.4264314 18.472002,22.5154871 Z" id="Combined-Shape" fill="#FFFFFF"></path>
                <path d="M17.527998,13.3595129 C16.4763546,12.5102896 15.1271978,12 13.6559961,12 C10.2981048,12 7.57599609,14.6583093 7.57599609,17.9375 C7.57599609,21.2166907 10.2981048,23.875 13.6559961,23.875 C15.1271978,23.875 16.4763546,23.3647104 17.527998,22.5154871 C16.1793559,21.4264314 15.32,19.7799702 15.32,17.9375 C15.32,16.0950298 16.1793559,14.4485686 17.527998,13.3595129 Z" id="Oval-2" fill="#FFFFFF"></path>
                <path d="M17.9959973,13.5 C19.3630322,14.5524221 20.2359973,16.1549771 20.2359973,17.9499998 C20.2359973,19.7450225 19.3630322,21.3475776 17.9959973,22.3999996 C16.6289625,21.3475776 15.7559973,19.7450225 15.7559973,17.9499998 C15.7559973,16.1549771 16.6289625,14.5524221 17.9959973,13.5 Z" id="Combined-Shape" fill="#FFFFFF"></path>
            </g>
        </g>
    </g>
</svg>

<svg width="36" height="36" viewBox="0 0 36 36" xmlns="http://www.w3.org/2000/svg">
  <g fill="none" fill-rule="evenodd">
    <path opacity=".9" d="M0 0h36v36H0z"/>
    <path d="M18.472 22.515c1.052.85 2.4 1.36 3.872 1.36 3.358 0 6.08-2.658 6.08-5.938S25.702 12 22.344 12c-1.47 0-2.82.51-3.872 1.36 1.35 1.09 2.208 2.735 2.208 4.578 0 1.842-.86 3.488-2.208 4.577zM17.528 13.36c-1.052-.85-2.4-1.36-3.872-1.36-3.358 0-6.08 2.658-6.08 5.938s2.722 5.937 6.08 5.937c1.47 0 2.82-.51 3.872-1.36-1.35-1.09-2.208-2.735-2.208-4.578 0-1.842.86-3.488 2.208-4.577z" fill="#FFF"/>
    <path d="M17.996 13.5c1.367 1.052 2.24 2.655 2.24 4.45 0 1.795-.873 3.398-2.24 4.45-1.367-1.052-2.24-2.655-2.24-4.45 0-1.795.873-3.398 2.24-4.45z" fill="#FFF"/>
  </g>
</svg>
